X:1
T:Title
%%score { ( 1 3 4 ) | ( 2 5 6 ) }
L:1/8
Q:1/4=100
M:4/4
K:Bb
V:1 treble nm="Grand Piano"
V:3 treble 
V:4 treble 
V:2 bass 
V:5 bass 
V:6 bass 
V:1
 [Fd]2 [Ec]2 [DB]2 [DF]2 | [B,EG]>[B,FA] [B,GB]>[B,EG] [B,EG]2 [B,DF]2 | %2
w: J.~H.~Hall * * *||
 [CFA]2 [DFB]2 [EFc]2 [CFA]2 | [B,FB]>[B,FB] c>c d4 | [Fd]2 [Ec]2 [DB]2 [DF]2 | %5
w: |||
 [EG]>[FA] [GB]>[EG] [EG]2 [DF]2 | A2 B2 c2 F2 | d>c B>A [DB]4 | [Fc]6 z2 | [D-F]4 D2 z2 | %10
w: |||||
 [Fc]6 z2 | [Bd]6[K:bass][K:treble] z2 | [Fd]>[Fd] [Fd]>[Ec] [DB]2 [DF]2 | %13
w: |||
 [EG]>[FA] [GB]>[EG] [DF]2 [FB]2 | [Ec]6 z2 | B6 z2 |] %16
w: |||
V:2
 [B,,B,]2 [B,,B,]2 [B,,B,]2 [B,,B,]2 | E,>E, E,>E, B,,2 B,,2 | F,2 F,2 F,2 F,E, | %3
 D,>D,[K:treble] [F,A,F]>[F,A,F] [B,F]4 | [B,,B,]2 [B,,B,]2 [B,,B,]2 [B,,B,]2 | %5
 [E,B,]>[E,B,] [E,B,]>[E,B,] [B,,B,]2 [B,,B,]2 | [F,CF]2 [F,DF]2 [F,EF]2 [F,B,D]2 | %7
 [F,B,F]>[F,E] [F,D]>[F,C] [B,,F,]4 | [F,A,]>F, F,>F, z z/[K:treble] G/ F>E | %9
 B,,>B,, B,,>B,, [B,,F,]2 [B,,B,]2 | [F,A,]>F, F,>F, z z/[K:treble] B/ c>A | z2 z F z4 | %12
 [B,,B,]>[B,,B,] [B,,B,]>[B,,B,] [B,,F,]2 [B,,B,]2 | [E,B,]>[E,B,] [E,B,]>[E,B,] [B,,B,]2 [D,B,]2 | %14
 [F,A,]>F, F,>F, z z/ E/ z z/ E/ | [B,,F,]>[B,,=E,] [B,,G,]>[B,,G,] [B,,F,]2 z2 |] %16
V:3
 x8 | x8 | x8 | x8 | x8 | x8 | x8 | x8 | z z/ A,/ A,>A, z z/ B/ A>G | B,>B, B,>B, B2 [Fd]2 | %10
 z z/ A,/ A,>A, z z/ d/ e>c | z z/[K:bass] F,/ F,>F,[K:treble] GABc | x8 | x8 | %14
 z z/ A,/ A,>A, z z/ F/ [EG]>A | D>_D E>E =D2 z2 |] %16
V:4
 x8 | x8 | x8 | x8 | x8 | x8 | x8 | x8 | z4 A,2 z2 | x8 | z4 A,2 z2 | %11
 x3/2[K:bass] x5/2[K:treble] x4 | x8 | x8 | z4 A,2 z2 | x8 |] %16
V:5
 x8 | x8 | x8 | x2[K:treble] x6 | x8 | x8 | x8 | x8 | z4 F,2[K:treble] z2 | x8 | %10
 z4 F,2[K:treble] z2 | [B,,F,]>B,, z z/ B,,/ [B,,F,]2 z2 | x8 | x8 | z4 F,2 F,2 | x8 |] %16
V:6
 x8 | x8 | x8 | x2[K:treble] x6 | x8 | x8 | x8 | x8 | x11/2[K:treble] x5/2 | x8 | %10
 x11/2[K:treble] x5/2 | z2 B,,2 z4 | x8 | x8 | x8 | x8 |] %16

